src/assets/filled/TagUser.svg

<?xml version="1.0" encoding="UTF-8"?>
<svg width="24" height="24" viewBox="0 0 24 24" xmlns="http://www.w3.org/2000/svg">
 <path d="m18 2h-12c-1.66 0-3 1.33-3 2.97v10.91c0 1.64 1.34 2.98 3 2.98h0.76c0.79 0 1.56 0.31 2.12 0.87l1.71 1.69c0.78 0.77 2.04 0.77 2.82 0l1.71-1.69c0.56-0.56 1.33-0.87 2.12-0.87h0.76c1.66 0 3-1.34 3-2.98v-10.91c0-1.64-1.34-2.97-3-2.97zm-6 3.55c1.08 0 1.95 0.88 1.95 1.95 0 1.06-0.84 1.91-1.88 1.95h-0.15c-1.05-0.04-1.88-0.89-1.88-1.95 0.01-1.07 0.88-1.95 1.96-1.95zm2.75 9.14c-1.51 1.01-3.99 1.01-5.5 0-1.33-0.88-1.33-2.34 0-3.23 1.52-1.01 4-1.01 5.5 0 1.33 0.89 1.33 2.34 0 3.23z"/>
</svg>

<svg width="24" height="24" viewBox="0 0 24 24"  xmlns="http://www.w3.org/2000/svg">
<path d="M18 2H6C4.34 2 3 3.33 3 4.97V15.88C3 17.52 4.34 18.86 6 18.86H6.76C7.55 18.86 8.32 19.17 8.88 19.73L10.59 21.42C11.37 22.19 12.63 22.19 13.41 21.42L15.12 19.73C15.68 19.17 16.45 18.86 17.24 18.86H18C19.66 18.86 21 17.52 21 15.88V4.97C21 3.33 19.66 2 18 2ZM12 5.55C13.08 5.55 13.95 6.43 13.95 7.5C13.95 8.56 13.11 9.41 12.07 9.45C12.03 9.45 11.97 9.45 11.92 9.45C10.87 9.41 10.04 8.56 10.04 7.5C10.05 6.43 10.92 5.55 12 5.55ZM14.75 14.69C13.24 15.7 10.76 15.7 9.25 14.69C7.92 13.81 7.92 12.35 9.25 11.46C10.77 10.45 13.25 10.45 14.75 11.46C16.08 12.35 16.08 13.8 14.75 14.69Z" />
</svg>
